X: 7733
T: Colonel McBain
R: reel
M: 4/4
K: Edorian
GEBE GEBE|FDDE FGAF|GEBE GEBE|FEDF E2 EF|
GEBE GEBE|FDDE FGAF|G2EF GABC'|D'/C'/BAF E2E'F'||
gfed edBc|dBAG FDDd|gfed edBA|B/c/def e2ef|
gfed edBc|dBAG FDD2|EGFA GBAC'|d/c/BAF E2EF||

